;FLAVOR:Marlin
;TIME:6535
;Filament used: 15.2445m
;Layer height: 0.4
;MINX:161.8
;MINY:153.3
;MINZ:0.28
;MAXX:244.2
;MAXY:252.7
;MAXZ:9.88
;Generated with Cura_SteamEngine 4.13.1
M82 ;absolute extrusion mode
G21 ;metric values
G90 ;absolute positioning
M82 ;set extruder to absolute mode
M107 ;start with the fan off
G28 ;Home X/Y/Z
M104 S210 ; Preheat
M109 S210 ; Preheat
G91 ;relative positioning
G90 ;absolute positioning
G1 Z25.0 F9000 ;raise nozzle 25mm
G92 E0 ;zero the extruded length again
G1 F9000
;Put printing message on LCD screen
M117 Printing...
G92 E0
G92 E0
G1 F4200 E-0.75
;LAYER_COUNT:25
;LAYER:0
M107
M204 S700
G0 F4320 X162.44 Y153.967 Z0.28
M204 S400
;TYPE:SKIRT
G1 F4200 E0
G1 F2160 X162.761 Y153.698 E0.01911
G1 X163.127 Y153.494 E0.03823
G1 X163.525 Y153.363 E0.05735
G1 X164.268 Y153.301 E0.09138
G1 X241.325 Y153.3 E3.60771
G1 X242.023 Y153.31 E3.63957
G1 X242.439 Y153.356 E3.65866
G1 X242.839 Y153.48 E3.67777
G1 X243.209 Y153.678 E3.69692
G1 X243.534 Y153.942 E3.71603
G1 X243.803 Y154.263 E3.73514
G1 X244.007 Y154.629 E3.75426
G1 X244.137 Y155.027 E3.77337
G1 X244.199 Y155.768 E3.8073
G1 X244.2 Y249.791 E8.09784
G1 X244.191 Y250.518 E8.13102
G1 X244.146 Y250.935 E8.15016
G1 X244.023 Y251.335 E8.16926
G1 X243.826 Y251.705 E8.18839
G1 X243.562 Y252.031 E8.20753
G1 X243.242 Y252.301 E8.22664
G1 X242.876 Y252.505 E8.24576
G1 X242.478 Y252.636 E8.26488
G1 X241.732 Y252.699 E8.29904
G1 X164.679 Y252.7 E11.81519
G1 X163.981 Y252.691 E11.84705
G1 X163.564 Y252.646 E11.86619
G1 X163.164 Y252.522 E11.8853
G1 X162.794 Y252.325 E11.90442
G1 X162.468 Y252.061 E11.92357
G1 X162.198 Y251.741 E11.94267
G1 X161.994 Y251.375 E11.96179
G1 X161.863 Y250.977 E11.98091
G1 X161.801 Y250.217 E12.01571
G1 X161.8 Y156.144 E16.30853
G1 X161.809 Y155.479 E16.33888
G1 X161.855 Y155.063 E16.35798
G1 X161.978 Y154.662 E16.37712
G1 X162.176 Y154.293 E16.39623
G1 X162.44 Y153.967 E16.41537
M204 S700
G1 F4200 E15.66537
;MESH:Robot breadboard holder printable.STL
G0 F4320 X164.6 Y156.1
M204 S400
;TYPE:WALL-INNER
G1 F4200 E16.41537
G1 F2160 X241.4 Y156.1 E19.91998
G1 X241.4 Y249.9 E24.20035
G1 X164.6 Y249.9 E27.70496
G1 X164.6 Y156.1 E31.98532
M204 S700
G0 F4320 X164.25 Y155.75
M204 S400
;TYPE:WALL-OUTER
G1 F2160 X241.75 Y155.75 E35.52187
G1 X241.75 Y250.25 E39.83418
G1 X164.25 Y250.25 E43.37073
G1 X164.25 Y155.75 E47.68304
M204 S700
G0 F4320 X164.5 Y155.75
G1 F4200 E46.93304
G0 F4320 X164.99 Y156.49
M204 S400
;TYPE:SKIN
G1 F4200 E47.68304
G1 F2160 X241.01 Y156.49 E51.15205
G1 X241.01 Y249.51 E55.39683
G1 X164.99 Y249.51 E58.86584
G1 X164.99 Y156.49 E63.11061
M204 S700
G1 F4200 E62.36061
G0 F4320 X240.849 Y157.128
M204 S400
G1 F4200 E63.11061
G1 F2160 X240.371 Y156.649 E63.14149
M204 S700
G0 F4320 X239.805 Y156.649
M204 S400
G1 F2160 X240.849 Y157.694 E63.2089
M204 S700
G0 F4320 X240.849 Y158.259
M204 S400
G1 F2160 X239.239 Y156.649 E63.3128
M204 S700
G0 F4320 X238.673 Y156.649
M204 S400
G1 F2160 X240.849 Y158.825 E63.45323
M204 S700
G0 F4320 X240.849 Y159.391
M204 S400
G1 F2160 X238.108 Y156.649 E63.63015
M204 S700
G0 F4320 X237.542 Y156.649
M204 S400
G1 F2160 X240.849 Y159.956 E63.84357
M204 S700
G0 F4320 X240.849 Y160.522
M204 S400
G1 F2160 X236.976 Y156.649 E64.09351
M204 S700
G0 F4320 X236.411 Y156.649
M204 S400
G1 F2160 X240.849 Y161.088 E64.37995
M204 S700
G0 F4320 X240.849 Y161.653
M204 S400
G1 F2160 X235.845 Y156.649 E64.70288
M204 S700
G0 F4320 X235.279 Y156.649
M204 S400
G1 F2160 X240.849 Y162.219 E65.06234
M204 S700
G0 F4320 X240.849 Y162.785
M204 S400
G1 F2160 X234.714 Y156.649 E65.45829
M204 S700
G0 F4320 X234.148 Y156.649
M204 S400
G1 F2160 X240.849 Y163.35 E65.89074
M204 S700
G0 F4320 X240.849 Y163.916
M204 S400
G1 F2160 X233.582 Y156.649 E66.35971
M204 S700
G0 F4320 X233.017 Y156.649
M204 S400
G1 F2160 X240.849 Y164.482 E66.86518
M204 S700
G0 F4320 X240.849 Y165.047
M204 S400
G1 F2160 X232.451 Y156.649 E67.40714
M204 S700
G0 F4320 X231.885 Y156.649
M204 S400
G1 F2160 X240.849 Y165.613 E67.98563
M204 S700
G0 F4320 X240.849 Y166.179
M204 S400
G1 F2160 X231.32 Y156.649 E68.60061
M204 S700
G0 F4320 X230.754 Y156.649
M204 S400
G1 F2160 X240.849 Y166.744 E69.25209
M204 S700
G0 F4320 X240.849 Y167.31
M204 S400
G1 F2160 X230.188 Y156.649 E69.94009
M204 S700
G0 F4320 X229.623 Y156.649
M204 S400
G1 F2160 X240.849 Y167.876 E70.66459
M204 S700
G0 F4320 X240.849 Y168.442
M204 S400
G1 F2160 X229.057 Y156.649 E71.42562
M204 S700
G0 F4320 X228.491 Y156.649
M204 S400
G1 F2160 X240.849 Y169.007 E72.22314
M204 S700
G0 F4320 X240.849 Y169.573
M204 S400
G1 F2160 X227.925 Y156.649 E73.05718
M204 S700
G0 F4320 X227.36 Y156.649
M204 S400
G1 F2160 X240.849 Y170.139 E73.92772
M204 S700
G0 F4320 X240.849 Y170.704
M204 S400
G1 F2160 X226.794 Y156.649 E74.83476
M204 S700
G0 F4320 X226.228 Y156.649
M204 S400
G1 F2160 X240.849 Y171.27 E75.77832
M204 S700
G0 F4320 X240.849 Y171.836
M204 S400
G1 F2160 X225.663 Y156.649 E76.75837
M204 S700
G0 F4320 X225.097 Y156.649
M204 S400
G1 F2160 X240.849 Y172.401 E77.77492
M204 S700
G0 F4320 X240.849 Y172.967
M204 S400
G1 F2160 X224.531 Y156.649 E78.828
M204 S700
G0 F4320 X223.966 Y156.649
M204 S400
G1 F2160 X240.849 Y173.533 E79.91757
M204 S700
G0 F4320 X240.849 Y174.098
M204 S400
G1 F2160 X223.4 Y156.649 E81.04364
M204 S700
G0 F4320 X222.834 Y156.649
M204 S400
G1 F2160 X240.849 Y174.664 E82.20623
M204 S700
G0 F4320 X240.849 Y175.23
M204 S400
G1 F2160 X222.269 Y156.649 E83.40532
M204 S700
G0 F4320 X221.703 Y156.649
M204 S400
G1 F2160 X240.849 Y175.795 E84.6409
M204 S700
G0 F4320 X240.849 Y176.361
M204 S400
G1 F2160 X221.137 Y156.649 E85.91301
M204 S700
G0 F4320 X220.572 Y156.649
M204 S400
G1 F2160 X240.849 Y176.927 E87.22161
M204 S700
G0 F4320 X240.849 Y177.492
M204 S400
G1 F2160 X220.006 Y156.649 E88.5667
M204 S700
G0 F4320 X219.44 Y156.649
M204 S400
G1 F2160 X240.849 Y178.058 E89.94833
M204 S700
G0 F4320 X240.849 Y178.624
M204 S400
G1 F2160 X218.875 Y156.649 E91.36644
M204 S700
G0 F4320 X218.309 Y156.649
M204 S400
G1 F2160 X240.849 Y179.19 E92.82109
M204 S700
G0 F4320 X240.849 Y179.755
M204 S400
G1 F2160 X217.743 Y156.649 E94.31223
M204 S700
G0 F4320 X217.177 Y156.649
M204 S400
G1 F2160 X240.849 Y180.321 E95.83989
M204 S700
G0 F4320 X240.849 Y180.887
M204 S400
G1 F2160 X216.612 Y156.649 E97.40405
M204 S700
G0 F4320 X216.046 Y156.649
M204 S400
G1 F2160 X240.849 Y181.452 E99.0047
M204 S700
G0 F4320 X240.849 Y182.018
M204 S400
G1 F2160 X215.48 Y156.649 E100.64188
M204 S700
G0 F4320 X214.915 Y156.649
M204 S400
G1 F2160 X240.849 Y182.584 E102.31556
M204 S700
G0 F4320 X240.849 Y183.149
M204 S400
G1 F2160 X214.349 Y156.649 E104.02573
M204 S700
G0 F4320 X213.783 Y156.649
M204 S400
G1 F2160 X240.849 Y183.715 E105.77242
M204 S700
G0 F4320 X240.849 Y184.281
M204 S400
G1 F2160 X213.218 Y156.649 E107.55561
M204 S700
G0 F4320 X212.652 Y156.649
M204 S400
G1 F2160 X240.849 Y184.846 E109.3753
M204 S700
G0 F4320 X240.849 Y185.412
M204 S400
G1 F2160 X212.086 Y156.649 E111.23151
M204 S700
G0 F4320 X211.521 Y156.649
M204 S400
G1 F2160 X240.849 Y185.978 E113.12421
M204 S700
G0 F4320 X240.849 Y186.543
M204 S400
G1 F2160 X210.955 Y156.649 E115.05341
M204 S700
G0 F4320 X210.389 Y156.649
M204 S400
G1 F2160 X240.849 Y187.109 E117.01914
M204 S700
G0 F4320 X240.849 Y187.675
M204 S400
G1 F2160 X209.824 Y156.649 E119.02136
M204 S700
G0 F4320 X209.258 Y156.649
M204 S400
G1 F2160 X240.849 Y188.241 E121.0601
M204 S700
G0 F4320 X240.849 Y188.806
M204 S400
G1 F2160 X208.692 Y156.649 E123.13535
M204 S700
G0 F4320 X208.126 Y156.649
M204 S400
G1 F2160 X240.849 Y189.372 E125.24711
M204 S700
G0 F4320 X240.849 Y189.938
M204 S400
G1 F2160 X207.561 Y156.649 E127.39538
M204 S700
G0 F4320 X206.995 Y156.649
M204 S400
G1 F2160 X240.849 Y190.503 E129.58013
M204 S700
G0 F4320 X240.849 Y191.069
M204 S400
G1 F2160 X206.429 Y156.649 E131.80142
M204 S700
G0 F4320 X205.864 Y156.649
M204 S400
G1 F2160 X240.849 Y191.635 E134.0592
M204 S700
G0 F4320 X240.849 Y192.2
M204 S400
G1 F2160 X205.298 Y156.649 E136.35347
M204 S700
G0 F4320 X204.732 Y156.649
M204 S400
G1 F2160 X240.849 Y192.766 E138.68427
M204 S700
G0 F4320 X240.849 Y193.332
M204 S400
G1 F2160 X204.167 Y156.649 E141.05156
M204 S700
G0 F4320 X203.601 Y156.649
M204 S400
G1 F2160 X240.849 Y193.897 E143.45535
M204 S700
G0 F4320 X240.849 Y194.463
M204 S400
G1 F2160 X203.035 Y156.649 E145.89566
M204 S700
G0 F4320 X202.47 Y156.649
M204 S400
G1 F2160 X240.849 Y195.029 E148.37247
M204 S700
G0 F4320 X240.849 Y195.594
M204 S400
G1 F2160 X201.904 Y156.649 E150.88577
M204 S700
G0 F4320 X201.338 Y156.649
M204 S400
G1 F2160 X240.849 Y196.16 E153.4356
M204 S700
G0 F4320 X240.849 Y196.726
M204 S400
G1 F2160 X200.773 Y156.649 E156.02193
M204 S700
G0 F4320 X200.207 Y156.649
M204 S400
G1 F2160 X240.849 Y197.291 E158.64474
M204 S700
G0 F4320 X240.849 Y197.857
M204 S400
G1 F2160 X199.641 Y156.649 E161.30409
M204 S700
G0 F4320 X199.076 Y156.649
M204 S400
G1 F2160 X240.849 Y198.423 E163.99993
M204 S700
G0 F4320 X240.849 Y198.989
M204 S400
G1 F2160 X198.51 Y156.649 E166.73229
M204 S700
G0 F4320 X197.944 Y156.649
M204 S400
G1 F2160 X240.849 Y199.554 E169.50115
M204 S700
G0 F4320 X240.849 Y200.12
M204 S400
G1 F2160 X197.378 Y156.649 E172.30654
M204 S700
G0 F4320 X196.813 Y156.649
M204 S400
G1 F2160 X240.849 Y200.686 E175.14842
M204 S700
G0 F4320 X240.849 Y201.251
M204 S400
G1 F2160 X196.247 Y156.649 E178.0268
M204 S700
G0 F4320 X195.681 Y156.649
M204 S400
G1 F2160 X240.849 Y201.817 E180.9417
M204 S700
G0 F4320 X240.849 Y202.383
M204 S400
G1 F2160 X195.116 Y156.649 E183.8931
M204 S700
G0 F4320 X194.55 Y156.649
M204 S400
G1 F2160 X240.849 Y202.948 E186.88099
M204 S700
G0 F4320 X240.849 Y203.514
M204 S400
G1 F2160 X193.984 Y156.649 E189.9054
M204 S700
G0 F4320 X193.419 Y156.649
M204 S400
G1 F2160 X240.849 Y204.08 E192.96632
M204 S700
G0 F4320 X240.849 Y204.645
M204 S400
G1 F2160 X192.853 Y156.649 E196.06372
M204 S700
G0 F4320 X192.287 Y156.649
M204 S400
G1 F2160 X240.849 Y205.211 E199.19765
M204 S700
G0 F4320 X240.849 Y205.777
M204 S400
G1 F2160 X191.722 Y156.649 E202.36808
M204 S700
G0 F4320 X191.156 Y156.649
M204 S400
G1 F2160 X240.849 Y206.342 E205.575
M204 S700
G0 F4320 X240.849 Y206.908
M204 S400
G1 F2160 X190.59 Y156.649 E208.81845
M204 S700
G0 F4320 X190.025 Y156.649
M204 S400
G1 F2160 X240.849 Y207.474 E212.09839
M204 S700
G0 F4320 X240.849 Y208.04
M204 S400
G1 F2160 X189.459 Y156.649 E215.41486
M204 S700
G0 F4320 X188.893 Y156.649
M204 S400
G1 F2160 X240.849 Y208.605 E218.76783
M204 S700
G0 F4320 X240.849 Y209.171
M204 S400
G1 F2160 X188.327 Y156.649 E222.15732
M204 S700
G0 F4320 X187.762 Y156.649
M204 S400
G1 F2160 X240.849 Y209.737 E225.5833
M204 S700
G0 F4320 X240.849 Y210.302
M204 S400
G1 F2160 X187.196 Y156.649 E229.04578
M204 S700
G0 F4320 X186.63 Y156.649
M204 S400
G1 F2160 X240.849 Y210.868 E232.54479
M204 S700
G0 F4320 X240.849 Y211.434
M204 S400
G1 F2160 X186.065 Y156.649 E236.08029
M204 S700
G0 F4320 X185.499 Y156.649
M204 S400
G1 F2160 X240.849 Y211.999 E239.65228
M204 S700
G0 F4320 X240.849 Y212.565
M204 S400
G1 F2160 X184.933 Y156.649 E243.2608
M204 S700
G0 F4320 X184.368 Y156.649
M204 S400
G1 F2160 X240.849 Y213.131 E246.90582
M204 S700
G0 F4320 X240.849 Y213.696
M204 S400
G1 F2160 X183.802 Y156.649 E250.58733
M204 S700
G0 F4320 X183.236 Y156.649
M204 S400
G1 F2160 X240.849 Y214.262 E254.30536
M204 S700
G0 F4320 X240.849 Y214.828
M204 S400
G1 F2160 X182.671 Y156.649 E258.05989
M204 S700
G0 F4320 X182.105 Y156.649
M204 S400
G1 F2160 X240.849 Y215.393 E261.85092
M204 S700
G0 F4320 X240.849 Y215.959
M204 S400
G1 F2160 X181.539 Y156.649 E265.67847
M204 S700
G0 F4320 X180.974 Y156.649
M204 S400
G1 F2160 X240.849 Y216.525 E269.54251
M204 S700
G0 F4320 X240.849 Y217.09
M204 S400
G1 F2160 X180.408 Y156.649 E273.44305
M204 S700
G0 F4320 X179.842 Y156.649
M204 S400
G1 F2160 X240.849 Y217.656 E277.38012
M204 S700
G0 F4320 X240.849 Y218.222
M204 S400
G1 F2160 X179.277 Y156.649 E281.35368
M204 S700
G0 F4320 X178.711 Y156.649
M204 S400
G1 F2160 X240.849 Y218.788 E285.36377
M204 S700
G0 F4320 X240.849 Y219.353
M204 S400
G1 F2160 X178.145 Y156.649 E289.41035
M204 S700
G0 F4320 X177.579 Y156.649
M204 S400
G1 F2160 X240.849 Y219.919 E293.49346
M204 S700
G0 F4320 X240.849 Y220.485
M204 S400
G1 F2160 X177.014 Y156.649 E297.61306
M204 S700
G0 F4320 X176.448 Y156.649
M204 S400
G1 F2160 X240.849 Y221.05 E301.76916
M204 S700
G0 F4320 X240.849 Y221.616
M204 S400
G1 F2160 X175.882 Y156.649 E305.96179
M204 S700
G0 F4320 X175.317 Y156.649
M204 S400
G1 F2160 X240.849 Y222.182 E310.1909
M204 S700
G0 F4320 X240.849 Y222.747
M204 S400
G1 F2160 X174.751 Y156.649 E314.45652
M204 S700
G0 F4320 X174.185 Y156.649
M204 S400
G1 F2160 X240.849 Y223.313 E318.75866
M204 S700
G0 F4320 X240.849 Y223.879
M204 S400
G1 F2160 X173.62 Y156.649 E323.09729
M204 S700
G0 F4320 X173.054 Y156.649
M204 S400
G1 F2160 X240.849 Y224.444 E327.47242
M204 S700
G0 F4320 X240.849 Y225.01
M204 S400
G1 F2160 X172.488 Y156.649 E331.88407
M204 S700
G0 F4320 X171.923 Y156.649
M204 S400
G1 F2160 X240.849 Y225.576 E336.33222
M204 S700
G0 F4320 X240.849 Y226.141
M204 S400
G1 F2160 X171.357 Y156.649 E340.81687
M204 S700
G0 F4320 X170.791 Y156.649
M204 S400
G1 F2160 X240.849 Y226.707 E345.33804
M204 S700
G0 F4320 X240.849 Y227.273
M204 S400
G1 F2160 X170.226 Y156.649 E349.8957
M204 S700
G0 F4320 X169.66 Y156.649
M204 S400
G1 F2160 X240.849 Y227.838 E354.48986
M204 S700
G0 F4320 X240.849 Y228.404
M204 S400
G1 F2160 X169.094 Y156.649 E359.12055
M204 S700
G0 F4320 X168.529 Y156.649
M204 S400
G1 F2160 X240.849 Y228.97 E363.78773
M204 S700
G0 F4320 X240.849 Y229.536
M204 S400
G1 F2160 X167.963 Y156.649 E368.49143
M204 S700
G0 F4320 X167.397 Y156.649
M204 S400
G1 F2160 X240.849 Y230.101 E373.23163
M204 S700
G0 F4320 X240.849 Y230.667
M204 S400
G1 F2160 X166.831 Y156.649 E378.00836
M204 S700
G0 F4320 X166.266 Y156.649
M204 S400
G1 F2160 X240.849 Y231.233 E382.82158
M204 S700
G0 F4320 X240.849 Y231.798
M204 S400
G1 F2160 X165.7 Y156.649 E387.6713
M204 S700
G0 F4320 X165.149 Y156.663
M204 S400
G1 F2160 X240.849 Y232.364 E392.55661
M204 S700
G0 F4320 X240.849 Y232.93
M204 S400
G1 F2160 X165.149 Y157.229 E397.44191
M204 S700
G0 F4320 X165.149 Y157.795
M204 S400
G1 F2160 X240.849 Y233.495 E402.32719
M204 S700
G0 F4320 X240.849 Y234.061
M204 S400
G1 F2160 X165.149 Y158.36 E407.21249
M204 S700
G0 F4320 X165.149 Y158.926
M204 S400
G1 F2160 X240.849 Y234.627 E412.0978
M204 S700
G0 F4320 X240.849 Y235.192
M204 S400
G1 F2160 X165.149 Y159.492 E416.98308
M204 S700
G0 F4320 X165.149 Y160.057
M204 S400
G1 F2160 X240.849 Y235.758 E421.86838
M204 S700
G0 F4320 X240.849 Y236.324
M204 S400
G1 F2160 X165.149 Y160.623 E426.75369
M204 S700
G0 F4320 X165.149 Y161.189
M204 S400
G1 F2160 X240.849 Y236.889 E431.63896
M204 S700
G0 F4320 X240.849 Y237.455
M204 S400
G1 F2160 X165.149 Y161.754 E436.52427
M204 S700
G0 F4320 X165.149 Y162.32
M204 S400
G1 F2160 X240.849 Y238.021 E441.40958
M204 S700
G0 F4320 X240.849 Y238.587
M204 S400
G1 F2160 X165.149 Y162.886 E446.29489
M204 S700
G0 F4320 X165.149 Y163.451
M204 S400
G1 F2160 X240.849 Y239.152 E451.18019
M204 S700
G0 F4320 X240.849 Y239.718
M204 S400
G1 F2160 X165.149 Y164.017 E456.0655
M204 S700
G0 F4320 X165.149 Y164.583
M204 S400
G1 F2160 X240.849 Y240.284 E460.95081
M204 S700
G0 F4320 X240.849 Y240.849
M204 S400
G1 F2160 X165.149 Y165.149 E465.83608
M204 S700
G0 F4320 X165.149 Y165.714
M204 S400
G1 F2160 X240.849 Y241.415 E470.72139
M204 S700
