;FLAVOR:Marlin
;TIME:1658
;Filament used: 2.05986m
;Layer height: 0.4
;MINX:165.2
;MINY:187.878
;MINZ:0.28
;MAXX:240.8
;MAXY:224.622
;MAXZ:5.08
;Generated with Cura_SteamEngine 4.13.1
M82 ;absolute extrusion mode
G21 ;metric values
G90 ;absolute positioning
M82 ;set extruder to absolute mode
M107 ;start with the fan off
G28 ;Home X/Y/Z
M104 S210 ; Preheat
M109 S210 ; Preheat
G91 ;relative positioning
G90 ;absolute positioning
G1 Z25.0 F9000 ;raise nozzle 25mm
G92 E0 ;zero the extruded length again
G1 F9000
;Put printing message on LCD screen
M117 Printing...
G92 E0
G92 E0
G1 F4200 E-0.75
;LAYER_COUNT:13
;LAYER:0
M107
M204 S700
G0 F4320 X167.623 Y190.028 Z0.28
M204 S400
;TYPE:SKIRT
G1 F4200 E0
G1 F2160 X168.222 Y189.513 E0.03605
G1 X168.87 Y189.062 E0.07207
G1 X169.561 Y188.678 E0.10815
G1 X170.286 Y188.366 E0.14417
G1 X171.039 Y188.129 E0.18019
G1 X171.813 Y187.97 E0.21625
G1 X172.598 Y187.889 E0.25226
G1 X173 Y187.879 E0.27061
G1 X233 Y187.878 E3.00858
G1 X233.789 Y187.918 E3.04463
G1 X234.569 Y188.037 E3.08064
G1 X235.334 Y188.235 E3.1167
G1 X236.074 Y188.509 E3.15271
G1 X236.783 Y188.857 E3.18875
G1 X237.454 Y189.274 E3.2248
G1 X238.078 Y189.758 E3.26084
G1 X238.651 Y190.301 E3.29686
G1 X239.166 Y190.9 E3.33291
G1 X239.617 Y191.548 E3.36893
G1 X240.001 Y192.238 E3.40497
G1 X240.313 Y192.964 E3.44103
G1 X240.55 Y193.717 E3.47705
G1 X240.709 Y194.491 E3.51311
G1 X240.79 Y195.276 E3.54912
G1 X240.8 Y195.678 E3.56747
G1 X240.8 Y197.321 E3.64245
G1 X240.76 Y198.11 E3.6785
G1 X240.641 Y198.89 E3.7145
G1 X240.443 Y199.655 E3.75056
G1 X240.405 Y199.757 E3.75553
G1 X240.55 Y200.217 E3.77754
G1 X240.709 Y200.991 E3.8136
G1 X240.79 Y201.776 E3.84961
G1 X240.8 Y202.178 E3.86796
G1 X240.8 Y203.821 E3.94293
G1 X240.76 Y204.61 E3.97898
G1 X240.641 Y205.39 E4.01499
G1 X240.443 Y206.155 E4.05105
G1 X240.405 Y206.257 E4.05601
G1 X240.55 Y206.717 E4.07802
G1 X240.709 Y207.491 E4.11408
G1 X240.79 Y208.276 E4.15009
G1 X240.8 Y208.678 E4.16844
G1 X240.8 Y210.321 E4.24342
G1 X240.76 Y211.11 E4.27947
G1 X240.641 Y211.89 E4.31547
G1 X240.443 Y212.655 E4.35153
G1 X240.405 Y212.757 E4.3565
G1 X240.55 Y213.217 E4.37851
G1 X240.709 Y213.991 E4.41457
G1 X240.79 Y214.776 E4.45058
G1 X240.8 Y215.178 E4.46893
G1 X240.8 Y216.821 E4.54391
G1 X240.76 Y217.61 E4.57996
G1 X240.641 Y218.39 E4.61596
G1 X240.443 Y219.155 E4.65202
G1 X240.169 Y219.895 E4.68803
G1 X239.821 Y220.604 E4.72407
G1 X239.403 Y221.275 E4.76015
G1 X238.92 Y221.899 E4.79615
G1 X238.377 Y222.472 E4.83218
G1 X237.778 Y222.987 E4.86823
G1 X237.13 Y223.438 E4.90425
G1 X236.439 Y223.822 E4.94033
G1 X235.714 Y224.134 E4.97634
G1 X234.961 Y224.371 E5.01237
G1 X234.187 Y224.53 E5.04842
G1 X233.402 Y224.611 E5.08444
G1 X233 Y224.621 E5.10279
G1 X173 Y224.622 E7.84076
G1 X172.211 Y224.582 E7.87681
G1 X171.431 Y224.463 E7.91282
G1 X170.666 Y224.265 E7.94888
G1 X169.926 Y223.991 E7.98489
G1 X169.217 Y223.643 E8.02093
G1 X168.546 Y223.226 E8.05698
G1 X167.922 Y222.742 E8.09301
G1 X167.349 Y222.199 E8.12904
G1 X166.834 Y221.6 E8.16508
G1 X166.383 Y220.952 E8.20111
G1 X165.999 Y220.262 E8.23715
G1 X165.687 Y219.536 E8.27321
G1 X165.45 Y218.783 E8.30923
G1 X165.291 Y218.009 E8.34529
G1 X165.21 Y217.224 E8.3813
G1 X165.2 Y216.822 E8.39965
G1 X165.2 Y215.179 E8.47462
G1 X165.24 Y214.39 E8.51067
G1 X165.359 Y213.61 E8.54668
G1 X165.557 Y212.845 E8.58274
G1 X165.595 Y212.743 E8.58771
G1 X165.45 Y212.283 E8.60972
G1 X165.291 Y211.509 E8.64577
G1 X165.21 Y210.724 E8.68178
G1 X165.2 Y210.322 E8.70013
G1 X165.2 Y208.679 E8.77511
G1 X165.24 Y207.89 E8.81116
G1 X165.359 Y207.11 E8.84717
G1 X165.557 Y206.345 E8.88323
G1 X165.595 Y206.243 E8.88819
G1 X165.45 Y205.783 E8.9102
G1 X165.291 Y205.009 E8.94626
G1 X165.21 Y204.224 E8.98227
G1 X165.2 Y203.822 E9.00062
G1 X165.2 Y202.179 E9.0756
G1 X165.24 Y201.39 E9.11165
G1 X165.359 Y200.61 E9.14765
G1 X165.557 Y199.845 E9.18371
G1 X165.595 Y199.743 E9.18868
G1 X165.45 Y199.283 E9.21069
G1 X165.291 Y198.509 E9.24675
G1 X165.21 Y197.724 E9.28276
G1 X165.2 Y197.322 E9.30111
G1 X165.2 Y195.679 E9.37608
G1 X165.24 Y194.89 E9.41213
G1 X165.359 Y194.11 E9.44814
G1 X165.557 Y193.345 E9.4842
G1 X165.831 Y192.605 E9.52021
G1 X166.179 Y191.896 E9.55625
G1 X166.597 Y191.225 E9.59232
G1 X167.08 Y190.601 E9.62833
G1 X167.623 Y190.028 E9.66435
M204 S700
G0 F4320 X168.016 Y190.209
M204 S400
G1 F2160 X168.611 Y189.721 E9.69947
G1 X169.253 Y189.298 E9.73455
G1 X169.936 Y188.943 E9.76968
G1 X170.651 Y188.662 E9.80474
G1 X171.393 Y188.456 E9.83988
G1 X172.151 Y188.328 E9.87496
G1 X173 Y188.279 E9.91376
G1 X233 Y188.278 E12.65174
G1 X233.768 Y188.318 E12.68683
G1 X234.528 Y188.437 E12.72193
G1 X235.271 Y188.635 E12.75702
G1 X235.99 Y188.909 E12.79213
G1 X236.676 Y189.256 E12.82722
G1 X237.323 Y189.672 E12.86232
G1 X237.923 Y190.153 E12.89741
G1 X238.47 Y190.694 E12.93252
G1 X238.958 Y191.289 E12.96763
G1 X239.381 Y191.931 E13.00272
G1 X239.736 Y192.614 E13.03784
G1 X240.017 Y193.329 E13.0729
G1 X240.223 Y194.07 E13.10799
G1 X240.351 Y194.829 E13.14312
G1 X240.4 Y195.678 E13.18193
G1 X240.4 Y197.321 E13.2569
G1 X240.36 Y198.089 E13.29199
G1 X240.241 Y198.849 E13.3271
G1 X240.043 Y199.592 E13.36219
G1 X239.984 Y199.746 E13.36971
G1 X240.017 Y199.829 E13.37379
G1 X240.223 Y200.57 E13.40888
G1 X240.351 Y201.329 E13.44401
G1 X240.4 Y202.178 E13.48282
G1 X240.4 Y203.821 E13.55779
G1 X240.36 Y204.589 E13.59288
G1 X240.241 Y205.349 E13.62799
G1 X240.043 Y206.092 E13.66308
G1 X239.984 Y206.246 E13.6706
G1 X240.017 Y206.329 E13.67468
G1 X240.223 Y207.07 E13.70977
G1 X240.351 Y207.829 E13.7449
G1 X240.4 Y208.678 E13.7837
G1 X240.4 Y210.321 E13.85868
G1 X240.36 Y211.089 E13.89377
G1 X240.241 Y211.849 E13.92888
G1 X240.043 Y212.592 E13.96397
G1 X239.984 Y212.746 E13.97149
G1 X240.017 Y212.829 E13.97557
G1 X240.223 Y213.57 E14.01066
G1 X240.351 Y214.329 E14.04579
G1 X240.4 Y215.178 E14.08459
G1 X240.4 Y216.821 E14.15957
G1 X240.36 Y217.589 E14.19466
G1 X240.241 Y218.349 E14.22977
G1 X240.043 Y219.092 E14.26485
G1 X239.769 Y219.811 E14.29997
G1 X239.422 Y220.497 E14.33505
G1 X239.006 Y221.144 E14.37015
G1 X238.525 Y221.744 E14.40524
G1 X237.984 Y222.291 E14.44035
G1 X237.389 Y222.779 E14.47546
G1 X236.747 Y223.202 E14.51055
G1 X236.064 Y223.557 E14.54567
G1 X235.349 Y223.838 E14.58073
G1 X234.607 Y224.044 E14.61587
G1 X233.849 Y224.172 E14.65095
G1 X233 Y224.221 E14.68976
G1 X173 Y224.222 E17.42773
G1 X172.232 Y224.182 E17.46282
G1 X171.472 Y224.063 E17.49793
G1 X170.729 Y223.865 E17.53302
G1 X170.01 Y223.591 E17.56813
G1 X169.324 Y223.244 E17.60321
G1 X168.677 Y222.828 E17.63831
G1 X168.077 Y222.347 E17.6734
G1 X167.53 Y221.806 E17.70851
G1 X167.042 Y221.211 E17.74362
G1 X166.619 Y220.569 E17.77871
G1 X166.264 Y219.886 E17.81383
G1 X165.983 Y219.171 E17.84889
G1 X165.777 Y218.43 E17.88399
G1 X165.649 Y217.671 E17.91911
G1 X165.6 Y216.822 E17.95792
G1 X165.6 Y215.179 E18.03289
G1 X165.64 Y214.411 E18.06799
G1 X165.759 Y213.651 E18.10309
G1 X165.957 Y212.908 E18.13818
G1 X166.016 Y212.754 E18.1457
G1 X165.983 Y212.671 E18.14978
G1 X165.777 Y211.93 E18.18488
G1 X165.649 Y211.171 E18.22
G1 X165.6 Y210.322 E18.25881
G1 X165.6 Y208.679 E18.33378
G1 X165.64 Y207.911 E18.36888
G1 X165.759 Y207.151 E18.40398
G1 X165.957 Y206.408 E18.43907
G1 X166.016 Y206.254 E18.44659
G1 X165.983 Y206.171 E18.45067
G1 X165.777 Y205.43 E18.48577
G1 X165.649 Y204.671 E18.52089
G1 X165.6 Y203.822 E18.5597
G1 X165.6 Y202.179 E18.63467
G1 X165.64 Y201.411 E18.66977
G1 X165.759 Y200.651 E18.70487
G1 X165.957 Y199.908 E18.73996
G1 X166.016 Y199.754 E18.74748
G1 X165.983 Y199.671 E18.75156
G1 X165.777 Y198.93 E18.78666
G1 X165.649 Y198.171 E18.82178
G1 X165.6 Y197.322 E18.86059
G1 X165.6 Y195.679 E18.93556
G1 X165.64 Y194.911 E18.97066
G1 X165.759 Y194.151 E19.00576
G1 X165.957 Y193.408 E19.04085
G1 X166.231 Y192.689 E19.07596
G1 X166.578 Y192.003 E19.11104
G1 X166.994 Y191.356 E19.14614
G1 X167.475 Y190.756 E19.18123
G1 X168.016 Y190.209 E19.21634
M204 S700
G0 F4320 X168.408 Y190.395
M204 S400
G1 F2160 X168.998 Y189.936 E19.25045
G1 X169.634 Y189.541 E19.28462
G1 X170.308 Y189.217 E19.31874
G1 X171.013 Y188.967 E19.35288
G1 X171.741 Y188.793 E19.38703
G1 X172.483 Y188.698 E19.42117
G1 X173 Y188.679 E19.44478
G1 X233 Y188.678 E22.18275
G1 X233.747 Y188.718 E22.21689
G1 X234.485 Y188.837 E22.251
G1 X235.207 Y189.035 E22.28516
G1 X235.903 Y189.308 E22.31928
G1 X236.566 Y189.655 E22.35343
G1 X237.189 Y190.07 E22.38759
G1 X237.763 Y190.549 E22.4217
G1 X238.283 Y191.086 E22.45581
G1 X238.743 Y191.676 E22.48995
G1 X239.138 Y192.312 E22.52412
G1 X239.462 Y192.986 E22.55824
G1 X239.712 Y193.691 E22.59238
G1 X239.886 Y194.419 E22.62653
G1 X239.981 Y195.161 E22.66067
G1 X240 Y195.678 E22.68428
G1 X240 Y197.321 E22.75925
G1 X239.96 Y198.068 E22.79339
G1 X239.841 Y198.806 E22.8275
G1 X239.643 Y199.528 E22.86166
G1 X239.556 Y199.75 E22.87254
G1 X239.712 Y200.191 E22.89389
G1 X239.886 Y200.919 E22.92805
G1 X239.981 Y201.661 E22.96218
G1 X240 Y202.178 E22.98579
G1 X240 Y203.821 E23.06077
G1 X239.96 Y204.568 E23.0949
G1 X239.841 Y205.306 E23.12902
G1 X239.643 Y206.028 E23.16318
G1 X239.556 Y206.25 E23.17406
G1 X239.712 Y206.691 E23.19541
G1 X239.886 Y207.419 E23.22956
G1 X239.981 Y208.161 E23.2637
G1 X240 Y208.678 E23.28731
G1 X240 Y210.321 E23.36228
G1 X239.96 Y211.068 E23.39642
G1 X239.841 Y211.806 E23.43053
G1 X239.643 Y212.528 E23.46469
G1 X239.556 Y212.75 E23.47557
G1 X239.712 Y213.191 E23.49692
G1 X239.886 Y213.919 E23.53108
G1 X239.981 Y214.661 E23.56521
G1 X240 Y215.178 E23.58882
G1 X240 Y216.821 E23.6638
G1 X239.96 Y217.568 E23.69793
G1 X239.841 Y218.306 E23.73204
G1 X239.643 Y219.028 E23.76621
G1 X239.37 Y219.724 E23.80032
G1 X239.023 Y220.387 E23.83447
G1 X238.608 Y221.01 E23.86863
G1 X238.129 Y221.584 E23.90275
G1 X237.592 Y222.105 E23.93689
G1 X237.002 Y222.564 E23.971
G1 X236.366 Y222.959 E24.00516
G1 X235.692 Y223.283 E24.03929
G1 X234.987 Y223.533 E24.07342
G1 X234.259 Y223.707 E24.10758
G1 X233.517 Y223.802 E24.14172
G1 X233 Y223.821 E24.16533
G1 X173 Y223.822 E26.9033
G1 X172.253 Y223.782 E26.93744
G1 X171.515 Y223.663 E26.97155
G1 X170.793 Y223.465 E27.00571
G1 X170.097 Y223.192 E27.03983
G1 X169.434 Y222.845 E27.07398
G1 X168.811 Y222.43 E27.10814
G1 X168.237 Y221.951 E27.14225
G1 X167.717 Y221.414 E27.17636
G1 X167.257 Y220.824 E27.2105
G1 X166.862 Y220.188 E27.24467
G1 X166.538 Y219.514 E27.27879
G1 X166.288 Y218.809 E27.31293
G1 X166.114 Y218.081 E27.34708
G1 X166.019 Y217.339 E27.38122
G1 X166 Y216.822 E27.40483
G1 X166 Y215.179 E27.4798
G1 X166.04 Y214.432 E27.51394
G1 X166.159 Y213.694 E27.54805
G1 X166.357 Y212.972 E27.58221
G1 X166.444 Y212.75 E27.59309
G1 X166.288 Y212.309 E27.61444
G1 X166.114 Y211.581 E27.6486
G1 X166.019 Y210.839 E27.68273
G1 X166 Y210.322 E27.70634
G1 X166 Y208.679 E27.78132
G1 X166.04 Y207.932 E27.81545
G1 X166.159 Y207.194 E27.84956
G1 X166.357 Y206.472 E27.88373
G1 X166.444 Y206.25 E27.89461
G1 X166.288 Y205.809 E27.91595
G1 X166.114 Y205.081 E27.95011
G1 X166.019 Y204.339 E27.98425
G1 X166 Y203.822 E28.00785
G1 X166 Y202.179 E28.08283
G1 X166.04 Y201.432 E28.11697
G1 X166.159 Y200.694 E28.15108
G1 X166.357 Y199.972 E28.18524
G1 X166.444 Y199.75 E28.19612
G1 X166.288 Y199.309 E28.21747
G1 X166.114 Y198.581 E28.25162
G1 X166.019 Y197.839 E28.28576
G1 X166 Y197.322 E28.30937
G1 X166 Y195.679 E28.38434
G1 X166.04 Y194.932 E28.41848
G1 X166.159 Y194.194 E28.45259
G1 X166.357 Y193.472 E28.48676
G1 X166.63 Y192.776 E28.52087
G1 X166.977 Y192.113 E28.55502
G1 X167.392 Y191.49 E28.58918
G1 X167.871 Y190.916 E28.6233
G1 X168.408 Y190.395 E28.65744
M204 S700
G0 F4320 X168.265 Y191.081
M204 S400
G1 F2160 X168.799 Y190.588 E28.6906
G1 X169.384 Y190.158 E28.72373
G1 X170.013 Y189.794 E28.7569
G1 X170.678 Y189.501 E28.79006
G1 X171.371 Y189.283 E28.82321
G1 X172.083 Y189.143 E28.85632
G1 X173 Y189.079 E28.89827
G1 X233 Y189.078 E31.63624
G1 X233.725 Y189.118 E31.66938
G1 X234.442 Y189.237 E31.70254
G1 X235.141 Y189.435 E31.7357
G1 X235.814 Y189.708 E31.76884
G1 X236.453 Y190.053 E31.80198
G1 X237.05 Y190.467 E31.83513
G1 X237.598 Y190.943 E31.86825
G1 X238.091 Y191.477 E31.90142
G1 X238.521 Y192.062 E31.93455
G1 X238.885 Y192.691 E31.96771
G1 X239.178 Y193.355 E32.00083
G1 X239.396 Y194.048 E32.03398
G1 X239.536 Y194.761 E32.06714
G1 X239.6 Y195.678 E32.10909
G1 X239.6 Y197.321 E32.18406
G1 X239.56 Y198.046 E32.21719
G1 X239.441 Y198.763 E32.25036
G1 X239.243 Y199.462 E32.28351
G1 X239.129 Y199.744 E32.29739
G1 X239.178 Y199.855 E32.30293
G1 X239.396 Y200.548 E32.33608
G1 X239.536 Y201.261 E32.36924
G1 X239.6 Y202.178 E32.41119
G1 X239.6 Y203.821 E32.48616
G1 X239.56 Y204.546 E32.5193
G1 X239.441 Y205.263 E32.55246
G1 X239.243 Y205.962 E32.58561
G1 X239.129 Y206.244 E32.59949
G1 X239.178 Y206.355 E32.60503
G1 X239.396 Y207.048 E32.63818
G1 X239.536 Y207.761 E32.67134
G1 X239.6 Y208.678 E32.71329
G1 X239.6 Y210.321 E32.78826
G1 X239.56 Y211.046 E32.8214
G1 X239.441 Y211.763 E32.85456
G1 X239.243 Y212.462 E32.88771
G1 X239.129 Y212.744 E32.9016
G1 X239.178 Y212.855 E32.90713
G1 X239.396 Y213.548 E32.94028
G1 X239.536 Y214.261 E32.97344
G1 X239.6 Y215.178 E33.01539
G1 X239.6 Y216.821 E33.09036
G1 X239.56 Y217.546 E33.1235
G1 X239.441 Y218.263 E33.15666
G1 X239.243 Y218.962 E33.18982
G1 X238.97 Y219.635 E33.22296
G1 X238.625 Y220.274 E33.2561
G1 X238.211 Y220.871 E33.28925
G1 X237.735 Y221.419 E33.32237
G1 X237.201 Y221.912 E33.35554
G1 X236.616 Y222.342 E33.38867
G1 X235.987 Y222.706 E33.42183
G1 X235.322 Y222.999 E33.45499
G1 X234.629 Y223.217 E33.48814
G1 X233.917 Y223.357 E33.52125
G1 X233 Y223.421 E33.5632
G1 X173 Y223.422 E36.30118
G1 X172.275 Y223.382 E36.33431
G1 X171.558 Y223.263 E36.36748
G1 X170.859 Y223.065 E36.40063
G1 X170.186 Y222.792 E36.43377
G1 X169.547 Y222.447 E36.46691
G1 X168.95 Y222.033 E36.50006
G1 X168.402 Y221.557 E36.53318
G1 X167.909 Y221.023 E36.56635
G1 X167.479 Y220.438 E36.59948
G1 X167.115 Y219.809 E36.63264
G1 X166.822 Y219.145 E36.66576
G1 X166.604 Y218.452 E36.69891
G1 X166.464 Y217.739 E36.73207
G1 X166.4 Y216.822 E36.77402
G1 X166.4 Y215.179 E36.84899
G1 X166.44 Y214.454 E36.88213
G1 X166.559 Y213.737 E36.91529
G1 X166.757 Y213.038 E36.94845
G1 X166.871 Y212.756 E36.96233
G1 X166.822 Y212.645 E36.96786
G1 X166.604 Y211.952 E37.00101
G1 X166.464 Y211.239 E37.03417
G1 X166.4 Y210.322 E37.07612
G1 X166.4 Y208.679 E37.15109
G1 X166.44 Y207.954 E37.18423
G1 X166.559 Y207.237 E37.21739
G1 X166.757 Y206.538 E37.25055
G1 X166.871 Y206.256 E37.26443
G1 X166.822 Y206.145 E37.26996
G1 X166.604 Y205.452 E37.30312
G1 X166.464 Y204.739 E37.33627
G1 X166.4 Y203.822 E37.37822
G1 X166.4 Y202.179 E37.4532
G1 X166.44 Y201.454 E37.48633
G1 X166.559 Y200.737 E37.5195
G1 X166.757 Y200.038 E37.55265
G1 X166.871 Y199.756 E37.56653
G1 X166.822 Y199.645 E37.57206
G1 X166.604 Y198.952 E37.60522
G1 X166.464 Y198.239 E37.63837
G1 X166.4 Y197.322 E37.68032
G1 X166.4 Y195.679 E37.7553
G1 X166.44 Y194.954 E37.78843
G1 X166.559 Y194.237 E37.8216
G1 X166.757 Y193.538 E37.85475
G1 X167.03 Y192.865 E37.88789
G1 X167.375 Y192.226 E37.92103
G1 X167.789 Y191.629 E37.95418
G1 X168.265 Y191.081 E37.9873
M204 S700
G0 F4320 X168.659 Y191.252
M204 S400
G1 F2160 X169.189 Y190.788 E38.01945
G1 X169.768 Y190.388 E38.05156
G1 X170.389 Y190.056 E38.0837
G1 X171.043 Y189.796 E38.11581
G1 X171.723 Y189.612 E38.14796
G1 X172.419 Y189.506 E38.18008
G1 X173 Y189.479 E38.20663
G1 X233 Y189.478 E40.9446
G1 X233.703 Y189.518 E40.97673
G1 X234.397 Y189.637 E41.00886
G1 X235.072 Y189.835 E41.04096
G1 X235.721 Y190.107 E41.07307
G1 X236.335 Y190.452 E41.10521
