;FLAVOR:Marlin
;TIME:5815
;Filament used: 12.1747m
;Layer height: 0.4
;MINX:163.3
;MINY:159.3
;MINZ:0.28
;MAXX:242.7
;MAXY:246.7
;MAXZ:9.88
;Generated with Cura_SteamEngine 4.13.1
M82 ;absolute extrusion mode
G21 ;metric values
G90 ;absolute positioning
M82 ;set extruder to absolute mode
M107 ;start with the fan off
G28 ;Home X/Y/Z
M104 S210 ; Preheat
M109 S210 ; Preheat
G91 ;relative positioning
G90 ;absolute positioning
G1 Z25.0 F9000 ;raise nozzle 25mm
G92 E0 ;zero the extruded length again
G1 F9000
;Put printing message on LCD screen
M117 Printing...
G92 E0
G92 E0
G1 F4200 E-0.75
;LAYER_COUNT:25
;LAYER:0
M107
M204 S700
G0 F4320 X163.94 Y159.967 Z0.28
M204 S400
;TYPE:SKIRT
G1 F4200 E0
G1 F2160 X164.261 Y159.698 E0.01911
G1 X164.627 Y159.494 E0.03823
G1 X165.025 Y159.363 E0.05735
G1 X165.768 Y159.301 E0.09138
G1 X239.825 Y159.3 E3.47081
G1 X240.523 Y159.31 E3.50267
G1 X240.939 Y159.356 E3.52177
G1 X241.339 Y159.48 E3.54088
G1 X241.709 Y159.678 E3.56003
G1 X242.034 Y159.942 E3.57913
G1 X242.303 Y160.263 E3.59824
G1 X242.507 Y160.629 E3.61737
G1 X242.637 Y161.027 E3.63647
G1 X242.699 Y161.768 E3.6704
G1 X242.7 Y228.805 E6.7295
G1 X242.69 Y229.526 E6.7624
G1 X242.644 Y229.942 E6.7815
G1 X242.52 Y230.342 E6.80061
G1 X242.323 Y230.712 E6.81974
G1 X242.101 Y230.993 E6.83608
G1 X241.599 Y231.532 E6.86969
G1 X240.618 Y232.557 E6.93444
G1 X238.771 Y234.598 E7.06005
G1 X236.962 Y236.716 E7.18715
G1 X235.206 Y238.893 E7.31478
G1 X233.569 Y241.046 E7.43821
G1 X231.941 Y243.314 E7.5656
G1 X230.319 Y245.719 E7.69798
G1 X230.053 Y246.043 E7.71711
G1 X229.73 Y246.31 E7.73623
G1 X229.362 Y246.511 E7.75537
G1 X228.963 Y246.639 E7.77449
G1 X228.244 Y246.699 E7.80741
G1 X178.176 Y246.7 E10.09216
G1 X177.475 Y246.69 E10.12415
G1 X177.058 Y246.644 E10.1433
G1 X176.658 Y246.52 E10.16241
G1 X176.288 Y246.322 E10.18156
G1 X175.963 Y246.058 E10.20066
G1 X175.685 Y245.724 E10.22049
G1 X175.044 Y244.778 E10.27264
G1 X174.791 Y244.393 E10.29366
G1 X173.202 Y242.111 E10.42055
G1 X171.555 Y239.885 E10.54691
G1 X169.866 Y237.731 E10.67182
G1 X168.088 Y235.593 E10.79871
G1 X166.256 Y233.511 E10.92527
G1 X164.336 Y231.45 E11.0538
G1 X163.923 Y231.02 E11.08101
G1 X163.663 Y230.691 E11.10014
G1 X163.47 Y230.32 E11.11923
G1 X163.351 Y229.918 E11.13836
G1 X163.301 Y229.237 E11.16952
G1 X163.3 Y162.144 E14.23117
G1 X163.309 Y161.479 E14.26152
G1 X163.355 Y161.063 E14.28062
G1 X163.478 Y160.662 E14.29976
G1 X163.676 Y160.293 E14.31887
G1 X163.94 Y159.967 E14.33801
M204 S700
G1 F4200 E13.58801
;MESH:Robot Arduino uno platform printable.STL
G0 F4320 X166.1 Y162.1
M204 S400
;TYPE:WALL-INNER
G1 F4200 E14.33801
G1 F2160 X239.9 Y162.1 E17.70572
G1 X239.9 Y228.9 E20.75399
G1 X227.9 Y228.9 E21.30159
G1 X227.9 Y243.9 E21.98608
G1 X178.1 Y243.9 E24.2586
G1 X178.1 Y228.9 E24.94309
G1 X166.1 Y228.9 E25.49069
G1 X166.1 Y162.1 E28.53897
M204 S700
G1 F4200 E27.78897
G0 F4320 X201.468 Y190.059
M204 S400
G1 F4200 E28.53897
G1 F2160 X201.079 Y190.636 E28.57072
G1 X200.905 Y191.311 E28.60253
G1 X200.905 Y191.682 E28.61946
G1 X200.966 Y192.035 E28.63581
G1 X201.091 Y192.385 E28.65277
G1 X201.474 Y192.948 E28.68384
G1 X201.766 Y193.203 E28.70153
G1 X202.387 Y193.515 E28.73325
G1 X203.094 Y193.605 E28.76577
G1 X203.789 Y193.453 E28.79823
G1 X204.394 Y193.078 E28.83071
G1 X204.831 Y192.536 E28.86248
G1 X204.99 Y192.183 E28.88015
G1 X205.106 Y191.496 E28.91195
G1 X204.987 Y190.809 E28.94376
G1 X204.827 Y190.456 E28.96145
G1 X204.387 Y189.916 E28.99323
G1 X203.781 Y189.544 E29.02568
G1 X203.085 Y189.395 E29.05816
G1 X202.379 Y189.488 E29.09066
G1 X201.759 Y189.802 E29.12237
G1 X201.468 Y190.059 E29.14009
M204 S700
G1 F4200 E28.39009
G0 F4320 X201.759 Y205.802
M204 S400
G1 F4200 E29.14009
G1 F2160 X201.468 Y206.059 E29.1578
G1 X201.079 Y206.636 E29.18956
G1 X200.905 Y207.311 E29.22137
G1 X200.905 Y207.682 E29.2383
G1 X200.966 Y208.035 E29.25465
G1 X201.091 Y208.385 E29.27161
G1 X201.474 Y208.948 E29.30268
G1 X201.766 Y209.203 E29.32037
G1 X202.387 Y209.515 E29.35208
G1 X203.094 Y209.605 E29.3846
G1 X203.789 Y209.453 E29.41707
G1 X204.394 Y209.078 E29.44955
G1 X204.831 Y208.536 E29.48132
G1 X204.99 Y208.183 E29.49899
G1 X205.106 Y207.496 E29.53078
G1 X204.987 Y206.809 E29.5626
G1 X204.827 Y206.456 E29.58028
G1 X204.387 Y205.916 E29.61207
G1 X203.781 Y205.544 E29.64452
G1 X203.085 Y205.395 E29.677
G1 X202.379 Y205.488 E29.70949
G1 X201.759 Y205.802 E29.74121
M204 S700
G1 F4200 E28.99121
G0 F4320 X201.759 Y221.802
M204 S400
G1 F4200 E29.74121
G1 F2160 X201.468 Y222.059 E29.75892
G1 X201.079 Y222.636 E29.79068
G1 X200.905 Y223.311 E29.82249
G1 X200.905 Y223.682 E29.83942
G1 X200.966 Y224.035 E29.85577
G1 X201.091 Y224.385 E29.87273
G1 X201.474 Y224.948 E29.9038
G1 X201.766 Y225.203 E29.92149
G1 X202.387 Y225.515 E29.9532
G1 X203.094 Y225.605 E29.98572
G1 X203.789 Y225.453 E30.01819
G1 X204.394 Y225.078 E30.05067
G1 X204.831 Y224.536 E30.08244
G1 X204.99 Y224.183 E30.10011
G1 X205.106 Y223.496 E30.1319
G1 X204.987 Y222.809 E30.16372
G1 X204.827 Y222.456 E30.1814
G1 X204.387 Y221.916 E30.21319
G1 X203.781 Y221.544 E30.24564
G1 X203.085 Y221.395 E30.27812
G1 X202.379 Y221.488 E30.31061
G1 X201.759 Y221.802 E30.34233
M204 S700
G0 F4320 X201.957 Y222.094
M204 S400
;TYPE:WALL-OUTER
G1 F2160 X201.733 Y222.292 E30.35597
G1 X201.403 Y222.782 E30.38293
G1 X201.255 Y223.355 E30.40993
G1 X201.255 Y223.652 E30.42349
G1 X201.306 Y223.945 E30.43706
G1 X201.406 Y224.225 E30.45063
G1 X201.738 Y224.714 E30.4776
G1 X201.963 Y224.91 E30.49121
G1 X202.491 Y225.175 E30.51817
G1 X203.078 Y225.25 E30.54518
G1 X203.656 Y225.124 E30.57217
G1 X204.159 Y224.812 E30.59918
G1 X204.53 Y224.351 E30.62619
G1 X204.652 Y224.08 E30.63975
G1 X204.751 Y223.497 E30.66673
G1 X204.65 Y222.913 E30.69378
G1 X204.527 Y222.642 E30.70736
G1 X204.153 Y222.183 E30.73438
G1 X203.649 Y221.874 E30.76135
G1 X203.071 Y221.75 E30.78833
G1 X202.484 Y221.827 E30.81535
G1 X201.957 Y222.094 E30.84231
M204 S700
G0 F4320 X201.77 Y222.26
G1 F4200 E30.09231
G0 F4320 X203.078 Y209.25
M204 S400
G1 F4200 E30.84231
G1 F2160 X203.656 Y209.124 E30.8693
G1 X204.159 Y208.812 E30.89631
G1 X204.53 Y208.351 E30.92331
G1 X204.652 Y208.08 E30.93688
G1 X204.751 Y207.497 E30.96386
G1 X204.65 Y206.913 E30.99091
G1 X204.527 Y206.642 E31.00449
G1 X204.153 Y206.183 E31.03151
G1 X203.649 Y205.874 E31.05848
G1 X203.071 Y205.75 E31.08546
G1 X202.484 Y205.827 E31.11247
G1 X201.957 Y206.094 E31.13943
G1 X201.733 Y206.292 E31.15308
G1 X201.403 Y206.782 E31.18003
G1 X201.255 Y207.355 E31.20704
G1 X201.255 Y207.652 E31.22059
G1 X201.306 Y207.945 E31.23416
G1 X201.406 Y208.225 E31.24773
G1 X201.738 Y208.714 E31.2747
G1 X201.963 Y208.91 E31.28832
G1 X202.491 Y209.175 E31.31528
G1 X203.078 Y209.25 E31.34228
M204 S700
G0 F4320 X203.322 Y209.197
G1 F4200 E30.59228
G0 F4320 X203.078 Y193.25
M204 S400
G1 F4200 E31.34228
G1 F2160 X203.656 Y193.124 E31.36928
G1 X204.159 Y192.812 E31.39629
G1 X204.53 Y192.351 E31.42329
G1 X204.652 Y192.08 E31.43685
G1 X204.751 Y191.497 E31.46384
G1 X204.65 Y190.913 E31.49088
G1 X204.527 Y190.642 E31.50446
G1 X204.153 Y190.183 E31.53148
G1 X203.649 Y189.874 E31.55846
G1 X203.071 Y189.75 E31.58544
G1 X202.484 Y189.827 E31.61245
G1 X201.957 Y190.094 E31.63941
G1 X201.733 Y190.292 E31.65305
G1 X201.403 Y190.782 E31.68001
G1 X201.255 Y191.355 E31.70702
G1 X201.255 Y191.652 E31.72057
G1 X201.306 Y191.945 E31.73414
G1 X201.406 Y192.225 E31.74771
G1 X201.738 Y192.714 E31.77468
G1 X201.963 Y192.91 E31.7883
G1 X202.491 Y193.175 E31.81526
G1 X203.078 Y193.25 E31.84226
M204 S700
G0 F4320 X203.322 Y193.197
G1 F4200 E31.09226
G0 F4320 X177.75 Y229.25
M204 S400
G1 F4200 E31.84226
G1 F2160 X165.75 Y229.25 E32.38986
G1 X165.75 Y161.75 E35.47008
G1 X240.25 Y161.75 E38.86973
G1 X240.25 Y229.25 E41.94995
G1 X228.25 Y229.25 E42.49754
G1 X228.25 Y244.25 E43.18204
G1 X177.75 Y244.25 E45.4865
G1 X177.75 Y229.25 E46.17099
M204 S700
G0 F4320 X177.5 Y229.25
G1 F4200 E45.42099
G0 F4320 X178.49 Y228.51
M204 S400
;TYPE:SKIN
G1 F4200 E46.17099
G1 F2160 X166.49 Y228.51 E46.71859
G1 X166.49 Y162.49 E49.73127
G1 X239.51 Y162.49 E53.06339
G1 X239.51 Y228.51 E56.07607
G1 X227.51 Y228.51 E56.62367
G1 X227.51 Y243.51 E57.30816
G1 X178.49 Y243.51 E59.54508
G1 X178.49 Y228.51 E60.22958
M204 S700
G1 F4200 E59.47958
G0 F4320 X200.588 Y224.134
M204 S400
G1 F4200 E60.22958
G1 F2160 X200.74 Y224.563 E60.25035
G1 X201.18 Y225.209 E60.28601
G1 X201.547 Y225.529 E60.30823
G1 X202.272 Y225.893 E60.34525
G1 X203.112 Y226.001 E60.3839
G1 X203.937 Y225.82 E60.42244
G1 X204.656 Y225.374 E60.46105
G1 X205.166 Y224.742 E60.49811
G1 X205.366 Y224.298 E60.52033
G1 X205.502 Y223.496 E60.55745
G1 X205.363 Y222.694 E60.5946
G1 X205.161 Y222.249 E60.6169
G1 X204.648 Y221.618 E60.65401
G1 X203.928 Y221.177 E60.69254
G1 X203.101 Y220.999 E60.73114
G1 X202.262 Y221.11 E60.76976
G1 X201.539 Y221.476 E60.80674
G1 X201.172 Y221.8 E60.82908
G1 X200.718 Y222.474 E60.86616
G1 X200.515 Y223.262 E60.90329
G1 X200.515 Y223.715 E60.92397
G1 X200.588 Y224.134 E60.94337
M204 S700
G1 F4200 E60.19337
G0 F4320 X201.18 Y209.209
M204 S400
G1 F4200 E60.94337
G1 F2160 X201.547 Y209.529 E60.96559
G1 X202.272 Y209.893 E61.00261
G1 X203.112 Y210.001 E61.04126
G1 X203.937 Y209.82 E61.0798
G1 X204.656 Y209.374 E61.11841
G1 X205.166 Y208.742 E61.15547
G1 X205.366 Y208.298 E61.17769
G1 X205.502 Y207.496 E61.21481
G1 X205.363 Y206.694 E61.25196
G1 X205.161 Y206.249 E61.27426
G1 X204.648 Y205.618 E61.31137
G1 X203.928 Y205.177 E61.3499
G1 X203.101 Y204.999 E61.3885
G1 X202.262 Y205.11 E61.42712
G1 X201.539 Y205.476 E61.4641
G1 X201.172 Y205.8 E61.48644
G1 X200.718 Y206.474 E61.52352
G1 X200.515 Y207.262 E61.56065
G1 X200.515 Y207.715 E61.58132
G1 X200.588 Y208.134 E61.60073
G1 X200.74 Y208.563 E61.6215
G1 X201.18 Y209.209 E61.65717
M204 S700
G1 F4200 E60.90717
G0 F4320 X201.547 Y193.529
M204 S400
G1 F4200 E61.65717
G1 F2160 X202.272 Y193.893 E61.69419
G1 X203.112 Y194.001 E61.73284
G1 X203.937 Y193.82 E61.77138
G1 X204.656 Y193.374 E61.80999
G1 X205.166 Y192.742 E61.84705
G1 X205.366 Y192.298 E61.86927
G1 X205.502 Y191.496 E61.90639
G1 X205.363 Y190.694 E61.94353
G1 X205.161 Y190.249 E61.96583
G1 X204.648 Y189.618 E62.00294
G1 X203.928 Y189.177 E62.04147
G1 X203.101 Y188.999 E62.08007
G1 X202.262 Y189.11 E62.11869
G1 X201.539 Y189.476 E62.15567
G1 X201.172 Y189.8 E62.17801
G1 X200.718 Y190.474 E62.2151
G1 X200.515 Y191.262 E62.25223
G1 X200.515 Y191.715 E62.2729
G1 X200.588 Y192.134 E62.29231
G1 X200.74 Y192.563 E62.31308
G1 X201.18 Y193.209 E62.34874
G1 X201.547 Y193.529 E62.37096
M204 S700
G1 F4200 E61.62096
G0 F4320 X239.349 Y162.981
M204 S400
G1 F4200 E62.37096
G1 F2160 X239.017 Y162.65 E62.39236
M204 S700
G0 F4320 X238.451 Y162.65
M204 S400
G1 F2160 X239.349 Y163.547 E62.45028
M204 S700
G0 F4320 X239.349 Y164.113
M204 S400
G1 F2160 X237.886 Y162.65 E62.54469
M204 S700
G0 F4320 X237.32 Y162.65
M204 S400
G1 F2160 X239.349 Y164.678 E62.6756
M204 S700
G0 F4320 X239.349 Y165.244
M204 S400
G1 F2160 X236.754 Y162.65 E62.84304
M204 S700
G0 F4320 X236.189 Y162.65
M204 S400
G1 F2160 X239.349 Y165.81 E63.04697
M204 S700
G0 F4320 X239.349 Y166.375
M204 S400
G1 F2160 X235.623 Y162.65 E63.28739
M204 S700
G0 F4320 X235.057 Y162.65
M204 S400
G1 F2160 X239.349 Y166.941 E63.56434
M204 S700
G0 F4320 X239.349 Y167.507
M204 S400
G1 F2160 X234.492 Y162.65 E63.87778
M204 S700
G0 F4320 X233.926 Y162.65
M204 S400
G1 F2160 X239.349 Y168.072 E64.22772
M204 S700
G0 F4320 X239.349 Y168.638
M204 S400
G1 F2160 X233.36 Y162.65 E64.61419
M204 S700
G0 F4320 X232.795 Y162.65
M204 S400
G1 F2160 X239.349 Y169.204 E65.03715
M204 S700
G0 F4320 X239.349 Y169.769
M204 S400
G1 F2160 X232.229 Y162.65 E65.4966
M204 S700
G0 F4320 X231.663 Y162.65
M204 S400
G1 F2160 X239.349 Y170.335 E65.99259
M204 S700
G0 F4320 X239.349 Y170.901
M204 S400
G1 F2160 X231.098 Y162.65 E66.52506
M204 S700
G0 F4320 X230.532 Y162.65
M204 S400
G1 F2160 X239.349 Y171.467 E67.09406
M204 S700
G0 F4320 X239.349 Y172.032
M204 S400
G1 F2160 X229.966 Y162.65 E67.69956
M204 S700
G0 F4320 X229.4 Y162.65
M204 S400
G1 F2160 X239.349 Y172.598 E68.34158
M204 S700
G0 F4320 X239.349 Y173.164
M204 S400
G1 F2160 X228.835 Y162.65 E69.0201
M204 S700
G0 F4320 X228.269 Y162.65
M204 S400
G1 F2160 X239.349 Y173.729 E69.73511
M204 S700
G0 F4320 X239.349 Y174.295
M204 S400
G1 F2160 X227.703 Y162.65 E70.48665
M204 S700
G0 F4320 X227.138 Y162.65
M204 S400
G1 F2160 X239.349 Y174.861 E71.27468
M204 S700
G0 F4320 X239.349 Y175.426
M204 S400
G1 F2160 X226.572 Y162.65 E72.09921
M204 S700
G0 F4320 X226.006 Y162.65
M204 S400
G1 F2160 X239.349 Y175.992 E72.96027
M204 S700
G0 F4320 X239.349 Y176.558
M204 S400
G1 F2160 X225.441 Y162.65 E73.85781
M204 S700
G0 F4320 X224.875 Y162.65
M204 S400
G1 F2160 X239.349 Y177.123 E74.79186
M204 S700
G0 F4320 X239.349 Y177.689
M204 S400
G1 F2160 X224.309 Y162.65 E75.76243
M204 S700
G0 F4320 X223.744 Y162.65
M204 S400
G1 F2160 X239.349 Y178.255 E76.76949
M204 S700
G0 F4320 X239.349 Y178.82
M204 S400
G1 F2160 X223.178 Y162.65 E77.81305
M204 S700
G0 F4320 X222.612 Y162.65
M204 S400
G1 F2160 X239.349 Y179.386 E78.89313
M204 S700
G0 F4320 X239.349 Y179.952
M204 S400
G1 F2160 X222.047 Y162.65 E80.00971
M204 S700
G0 F4320 X221.481 Y162.65
M204 S400
G1 F2160 X239.349 Y180.517 E81.16278
M204 S700
G0 F4320 X239.349 Y181.083
M204 S400
G1 F2160 X220.915 Y162.65 E82.35238
M204 S700
G0 F4320 X220.35 Y162.65
M204 S400
G1 F2160 X239.349 Y181.649 E83.57848
M204 S700
G0 F4320 X239.349 Y182.215
M204 S400
G1 F2160 X219.784 Y162.65 E84.8411
M204 S700
G0 F4320 X219.218 Y162.65
M204 S400
G1 F2160 X239.349 Y182.78 E86.14021
M204 S700
G0 F4320 X239.349 Y183.346
M204 S400
G1 F2160 X218.652 Y162.65 E87.47586
M204 S700
G0 F4320 X218.087 Y162.65
M204 S400
G1 F2160 X239.349 Y183.912 E88.84799
M204 S700
G0 F4320 X239.349 Y184.477
M204 S400
G1 F2160 X217.521 Y162.65 E90.25662
M204 S700
G0 F4320 X216.955 Y162.65
M204 S400
G1 F2160 X239.349 Y185.043 E91.70178
M204 S700
G0 F4320 X239.349 Y185.609
M204 S400
G1 F2160 X216.39 Y162.65 E93.18343
M204 S700
G0 F4320 X215.824 Y162.65
M204 S400
G1 F2160 X239.349 Y186.174 E94.70158
M204 S700
G0 F4320 X239.349 Y186.74
M204 S400
G1 F2160 X215.258 Y162.65 E96.25625
M204 S700
G0 F4320 X214.693 Y162.65
M204 S400
G1 F2160 X239.349 Y187.306 E97.84742
M204 S700
G0 F4320 X239.349 Y187.871
M204 S400
G1 F2160 X214.127 Y162.65 E99.47508
M204 S700
G0 F4320 X213.561 Y162.65
M204 S400
G1 F2160 X239.349 Y188.437 E101.13927
M204 S700
G0 F4320 X239.349 Y189.003
M204 S400
G1 F2160 X212.996 Y162.65 E102.83995
M204 S700
G0 F4320 X212.43 Y162.65
M204 S400
G1 F2160 X239.349 Y189.568 E104.57712
M204 S700
G0 F4320 X239.349 Y190.134
M204 S400
G1 F2160 X211.864 Y162.65 E106.35083
M204 S700
G0 F4320 X211.299 Y162.65
M204 S400
G1 F2160 X239.349 Y190.7 E108.16103
M204 S700
G0 F4320 X239.349 Y191.266
M204 S400
G1 F2160 X210.733 Y162.65 E110.00775
M204 S700
G0 F4320 X210.167 Y162.65
M204 S400
G1 F2160 X239.349 Y191.831 E111.89097
M204 S700
G0 F4320 X239.349 Y192.397
M204 S400
G1 F2160 X209.602 Y162.65 E113.81068
M204 S700
G0 F4320 X209.036 Y162.65
M204 S400
G1 F2160 X239.349 Y192.963 E115.76692
M204 S700
G0 F4320 X239.349 Y193.528
M204 S400
G1 F2160 X208.47 Y162.65 E117.75965
M204 S700
G0 F4320 X207.904 Y162.65
M204 S400
G1 F2160 X239.349 Y194.094 E119.78892
M204 S700
G0 F4320 X239.349 Y194.66
M204 S400
G1 F2160 X207.339 Y162.65 E121.85467
M204 S700
G0 F4320 X206.773 Y162.65
M204 S400
G1 F2160 X239.349 Y195.225 E123.95692
M204 S700
G0 F4320 X239.349 Y195.791
M204 S400
